X:8
T:Marquis Of Harlington. (p)1801.PN.08
T:Dearest Dicky,aka. (p)1801.PN.08
M:6/8
L:1/8
Q:3/8=120
S:Preston's 24 CD's for 1801
R:.Jig
O:England
A:London
N:Dearest Dicky, a Morris tune from Fieldtown.
Z:vmp.Chris Partington
W:Change sides, back again,down the middle, up again & Poussette.
K:Bb
F|BAB cBc|dcd Bcd|efe dcB|ABcF2F|!
BAB cBc|d2d=e2b|agf =efg|f3-f2:|!
|:d/e/|fdB Bcd|efg cde|dfe dcB|AcA FGA|!
BFB dBd|fga bfd|cde FGA|B3-B2:|

